svgs/duotone/bridge.svg

<svg xmlns="http://www.w3.org/2000/svg" viewBox="0 0 576 512"><!--! Font Awesome Pro 6.4.2 by @fontawesome - https://fontawesome.com License - https://fontawesome.com/license (Commercial License) Copyright 2023 Fonticons, Inc. --><path class="fa-primary" style="fill:var(--fa-primary-color,inherit);opacity:var(--fa-primary-opacity,1);" d="M0 160H576V288c-53 0-96 43-96 96v64c0 17.7-14.3 32-32 32H416c-17.7 0-32-14.3-32-32V384c0-53-43-96-96-96s-96 43-96 96v64c0 17.7-14.3 32-32 32H128c-17.7 0-32-14.3-32-32V384c0-53-43-96-96-96V160z"/><path class="fa-secondary" style="fill:var(--fa-secondary-color,inherit);opacity:var(--fa-secondary-opacity,.4);" d="M0 64C0 46.3 14.3 32 32 32H544c17.7 0 32 14.3 32 32s-14.3 32-32 32H504v64H456V96H376v64H328V96H248v64H200V96H120v64H72V96H32C14.3 96 0 81.7 0 64z"/></svg>

<svg xmlns="http://www.w3.org/2000/svg" viewBox="0 0 576 512"><!--! Font Awesome Pro 6.1.1 by @fontawesome - https://fontawesome.com License - https://fontawesome.com/license (Commercial License) Copyright 2022 Fonticons, Inc. --><defs><style>.fa-secondary{opacity:.4}</style></defs><path class="fa-primary" d="M0 160H576V288C522.1 288 480 330.1 480 384V448C480 465.7 465.7 480 448 480H416C398.3 480 384 465.7 384 448V384C384 330.1 341 288 288 288C234.1 288 192 330.1 192 384V448C192 465.7 177.7 480 160 480H128C110.3 480 96 465.7 96 448V384C96 330.1 53.02 288 0 288V160z"/><path class="fa-secondary" d="M0 64C0 46.33 14.33 32 32 32H544C561.7 32 576 46.33 576 64C576 81.67 561.7 96 544 96H504V160H456V96H376V160H328V96H248V160H200V96H120V160H72V96H32C14.33 96 0 81.67 0 64z"/></svg>
